X:1
T:Wake O Wake, You Drowsy Sleeper
M:4/4
L:1/4
K:G
 D D F2| A2 F A|F/2-E/2 D z2| D D F2-| F/2E/2 D A, F| E2 z F| D D F2|\
 A2 F A|F/2-E/2 D2 z| d2 c B| A3 D| F E D2|

